X: 34010
T: Reel Béatrice
R: reel
M: 4/4
K: Aminor
|:(3CCC AC EACE|AEEC E2 AB|ccAc eAce|ae (3eee aeab|
c'bag fedc|Bdd^c d4|e^def e=dcB|1 Aaec AE (3EEE:|2 Aaec A3 a||
|:a2 fa bf (3fff|fe^de ae (3eee|e^def e=ddB|cdcB A2 a2|
aafa bf (3fff|fe^de ae (3eee|e^def e=dcB|1 Aaec A2 a:|2 A2 AB AGGB||
|:cG (3GGG EGce|cG (3GGG EGce|dB (3BBB GBdB|cc'ba gfed|
cG (3GGG EGce|cG (3GGG EGce|dB (3BBB GBdB|1 cBcd cGGB:|2 cBcd cE (3EEE||

